build/img-landing/svg/cap13.svg

<svg width="63" height="63" viewBox="0 0 63 63" fill="none" xmlns="http://www.w3.org/2000/svg">
<path d="M58.9508 44.7077V37.5892H55.9001V7.1185H58.9136V0H4.04907V7.1185H7.09986V37.6016H4.04907V44.7201H24.3753V54.877H14.2184V60.9785H16.2522V63H23.3707V60.9661H39.6292V63H46.7477V60.9661H48.7816V54.8646H38.6247V44.7077H58.9508ZM6.08293 5.08465V2.03386H56.8922V5.08465H55.8752H7.09986H6.08293ZM53.829 37.6016H9.12132V7.1185H53.829V37.6016ZM46.7229 56.8984V58.9323H44.689V60.9661H41.6382V58.9323H21.3245V60.9661H18.2737V58.9323H16.2398V56.8984H26.3967V44.7077H36.566V56.8984H46.7229ZM38.5999 42.6738H24.3628H6.08293V39.623H7.09986H55.8752H56.8798V42.6738H38.5999Z" fill="#E30613"/>
<path d="M32.4983 46.7415H30.4645V48.7754H32.4983V46.7415Z" fill="#E30613"/>
<path d="M32.4983 50.8092H30.4645V52.8431H32.4983V50.8092Z" fill="#E30613"/>
<path d="M32.4983 54.8646H30.4645V56.8984H32.4983V54.8646Z" fill="#E30613"/>
<path d="M32.4984 23.377V14.237H31.4814C26.2232 14.237 21.8826 18.2551 21.3741 23.377H21.3245V24.3939V25.4108H21.3741C21.8454 30.1978 25.6775 34.0175 30.4645 34.5012V34.5508H31.4814H32.4984V34.5012C37.6202 33.9927 41.6383 29.6522 41.6383 24.3939V23.377H32.4984ZM30.4645 32.4425C26.7936 31.9961 23.8793 29.0693 23.4204 25.3984H30.4645V32.4425ZM30.4645 23.3646H23.4204C23.8793 19.6937 26.7936 16.7793 30.4645 16.3205V23.3646ZM32.4984 32.4425V25.3984H39.5425C39.0836 29.0693 36.1692 31.9837 32.4984 32.4425Z" fill="#E30613"/>
<path d="M35.5492 10.1693H34.5322V21.3431H45.7061V20.3262C45.7061 14.7207 41.1423 10.1693 35.5492 10.1693ZM36.5661 19.3093V12.2652C40.237 12.724 43.1513 15.6384 43.6102 19.3093H36.5661Z" fill="#E30613"/>
</svg>

<svg width="63" height="63" viewBox="0 0 63 63" fill="none" xmlns="http://www.w3.org/2000/svg"><path d="M58.95 44.708v-7.119H55.9V7.12h3.014V0H4.049v7.119H7.1v30.483H4.05v7.118h20.326v10.157H14.218v6.101h2.034V63h7.119v-2.034h16.258V63h7.119v-2.034h2.034v-6.101H38.625V44.708H58.95zM6.084 5.085V2.034h50.81v3.05H6.082zM53.83 37.602H9.121V7.119H53.83v30.483zm-7.106 19.296v2.034H44.69v2.034h-3.05v-2.034H21.323v2.034h-3.05v-2.034H16.24v-2.034h10.157v-12.19h10.169v12.19h10.157zM38.6 42.674H6.083v-3.051H56.88v3.05H38.6z" fill="#E30613"/><path d="M32.498 46.742h-2.033v2.033h2.033v-2.033zm0 4.068h-2.033v2.033h2.033V50.81zm0 4.055h-2.033v2.033h2.033v-2.033zm0-31.488v-9.14h-1.017c-5.258 0-9.598 4.018-10.107 9.14h-.05v2.034h.05c.471 4.787 4.303 8.606 9.09 9.09v.05h2.034v-.05c5.122-.508 9.14-4.849 9.14-10.107v-1.017h-9.14zm-2.033 9.066c-3.671-.447-6.586-3.374-7.045-7.045h7.044v7.045zm0-9.078H23.42a8.134 8.134 0 0 1 7.044-7.044v7.044zm2.033 9.078v-7.045h7.044a8.134 8.134 0 0 1-7.044 7.045z" fill="#E30613"/><path d="M35.55 10.17h-1.018v11.173h11.174v-1.017c0-5.605-4.564-10.157-10.157-10.157zm1.016 9.14v-7.045a8.134 8.134 0 0 1 7.044 7.044h-7.044z" fill="#E30613"/></svg>
